Newaita-dark/apps/16/vokoscreen.svg

<svg height="16pt" viewBox="0 0 16 16" width="16pt" xmlns="http://www.w3.org/2000/svg" xmlns:xlink="http://www.w3.org/1999/xlink"><linearGradient id="a" gradientUnits="userSpaceOnUse" x1="7.938261" x2="7.938261" y1="14.0169675" y2="14.67848943751"><stop offset="0" stop-opacity=".27451"/><stop offset="1" stop-opacity="0"/></linearGradient><linearGradient id="b"><stop offset="0" stop-opacity=".313725"/><stop offset=".222222" stop-opacity=".27451"/><stop offset="1" stop-opacity="0"/></linearGradient><radialGradient id="c" cx="450.90894" cy="189.57936" gradientTransform="matrix(.00000009 -.0390662 -.0703192 -.00000005 26.726845 31.797667)" gradientUnits="userSpaceOnUse" r="21.166656" xlink:href="#b"/><radialGradient id="d" cx="450.90894" cy="189.57936" gradientTransform="matrix(-.00000009 .0390662 .0703192 .00000005 -10.850329 -3.76374)" gradientUnits="userSpaceOnUse" r="21.166656" xlink:href="#b"/><radialGradient id="e" cx="450.90894" cy="189.57936" gradientTransform="matrix(-.00000009 -.0390662 .0703192 -.00000005 -10.850329 31.797667)" gradientUnits="userSpaceOnUse" r="21.166656" xlink:href="#b"/><radialGradient id="f" cx="450.90894" cy="189.57936" gradientTransform="matrix(.00000009 .0390662 -.0703192 .00000005 26.726845 -3.76374)" gradientUnits="userSpaceOnUse" r="21.166656" xlink:href="#b"/><linearGradient id="g"><stop offset="0" stop-color="#424242"/><stop offset="1" stop-color="#616161"/></linearGradient><linearGradient id="h" gradientTransform="matrix(.0376748 0 0 .108706 -2.927007 16.820674)" gradientUnits="userSpaceOnUse" x1="306.91666" x2="305.95456" xlink:href="#g" y1="-25.791676" y2="-135.32916"/><linearGradient id="i"><stop offset="0" stop-color="#f44336"/><stop offset="1" stop-color="#ef5350"/></linearGradient><linearGradient id="j" gradientUnits="userSpaceOnUse" x1="9.2613024" x2="9.2613024" xlink:href="#i" y1="14.02380529816" y2="2.11641583664"/><linearGradient id="k" gradientTransform="matrix(.5 0 0 .571428 -105.83347 106.33793)" gradientUnits="userSpaceOnUse" x1="444.5" x2="444.5" xlink:href="#g" y1="185.875" y2="148.83333"/><linearGradient id="l" gradientTransform="matrix(.5 0 0 .571428 -63.500116 106.33793)" gradientUnits="userSpaceOnUse" x1="444.5" x2="444.5" xlink:href="#g" y1="185.875" y2="148.83333"/><linearGradient id="m" gradientTransform="matrix(.5 0 0 .571428 -21.166803 106.33793)" gradientUnits="userSpaceOnUse" x1="444.5" x2="444.5" xlink:href="#g" y1="185.875" y2="148.83333"/><linearGradient id="n" gradientTransform="matrix(.5 0 0 .571428 169.3332 106.33793)" gradientUnits="userSpaceOnUse" x1="444.5" x2="444.5" xlink:href="#g" y1="185.875" y2="148.83333"/><linearGradient id="o" gradientUnits="userSpaceOnUse" x1="7.938262" x2="7.938262" xlink:href="#i" y1="14.0169675" y2="2.1095745"/><path d="m2.316406 14.015625h11.246094v.664063h-11.246094zm0 0" fill="url(#a)"/><path d="m13.5625 14.015625h1.320312v-.660156h-1.320312zm0 0" fill="url(#c)"/><path d="m2.316406 14.015625h-1.324218v.664063h1.324218zm0 0" fill="url(#d)"/><path d="m2.316406 14.015625h-1.324218v-.660156h1.324218zm0 0" fill="url(#e)"/><path d="m13.5625 14.015625h1.320312v.664063h-1.320312zm0 0" fill="url(#f)"/><path d="m1.652344 2.109375h12.570312c.367188 0 .660156.296875.660156.660156v10.585938c0 .367187-.292968.660156-.660156.660156h-12.570312c-.363282 0-.660156-.292969-.660156-.660156v-10.585938c0-.363281.296874-.660156.660156-.660156zm0 0" fill="url(#h)"/><path d="m1.652344 14.023438c-.363282 0-.660156-.296876-.660156-.660157v-.171875c0 .363282.296874.660156.660156.660156h12.570312c.367188 0 .660156-.296874.660156-.660156v.171875c0 .363281-.292968.660157-.660156.660157zm0 0" fill-opacity=".235294"/><path d="m3.308594 12.039062c-.367188 0-.664063.296876-.664063.660157v.992187c0 .183594.148438.332032.332031.332032h9.921876c.183593 0 .332031-.148438.332031-.332032v-.992187c0-.363281-.296875-.660157-.660157-.660157zm0 0" fill="url(#j)"/><g stroke="#212121" stroke-linecap="round" stroke-width="3" transform="matrix(.031253 0 0 .031253 0 6.719392)"><path d="m116.363888 191.336197c5.874439 0 10.623985 4.749546 10.623985 10.623985s-4.749546 10.623986-10.623985 10.623986c-5.749451 0-10.498998-4.749547-10.498998-10.623986s4.749547-10.623985 10.498998-10.623985zm0 0" fill="url(#k)"/><path d="m158.734842 191.336197c5.874439 0 10.623985 4.749546 10.623985 10.623985s-4.749546 10.623986-10.623985 10.623986-10.623986-4.749547-10.623986-10.623986 4.749547-10.623985 10.623986-10.623985zm0 0" fill="url(#l)"/><path d="m201.105795 191.336197c5.874439 0 10.498998 4.749546 10.498998 10.623985s-4.624559 10.623986-10.498998 10.623986-10.623985-4.749547-10.623985-10.623986 4.749546-10.623985 10.623985-10.623985zm0 0" fill="url(#m)"/><path d="m391.587605 191.336197c5.874439 0 10.623986 4.749546 10.623986 10.623985s-4.749547 10.623986-10.623986 10.623986-10.623985-4.749547-10.623985-10.623986 4.749546-10.623985 10.623985-10.623985zm0 0" fill="url(#n)"/></g><path d="m3.308594 12.039062c-.367188 0-.664063.296876-.664063.660157v.160156c0-.367187.296875-.660156.664063-.660156h9.261718c.363282 0 .660157.292969.660157.660156v-.160156c0-.363281-.296875-.660157-.660157-.660157zm0 0" fill="#fff" fill-opacity=".392157"/><path d="m2.644531 13.527344v.164062c0 .183594.148438.332032.332031.332032h9.921876c.183593 0 .332031-.148438.332031-.332032v-.164062c0 .183594-.148438.332031-.332031.332031h-9.921876c-.183593 0-.332031-.148437-.332031-.332031zm0 0" fill-opacity=".235294"/><path d="m3.308594 11.992188c-.394532 0-.710938.316406-.710938.707031v.992187c0 .210938.171875.378906.378906.378906h9.921876c.210937 0 .378906-.167968.378906-.378906v-.992187c0-.390625-.316406-.707031-.707032-.707031zm0 .09375h9.261718c.339844 0 .613282.273437.613282.613281v.992187c0 .160156-.125.285156-.285156.285156h-9.921876c-.15625 0-.285156-.125-.285156-.285156v-.992187c0-.339844.273438-.613281.617188-.613281zm0 0" fill="#212121"/><path d="m1.652344 2.148438c-.363282 0-.660156.292968-.660156.660156v.089844c0-.367188.296874-.660157.660156-.660157h12.570312c.367188 0 .660156.292969.660156.660157v-.089844c0-.367188-.292968-.660156-.660156-.660156zm0 0" fill="#fff" fill-opacity=".392157"/><path d="m1.652344 2.0625c-.390625 0-.707032.316406-.707032.707031v10.585938c0 .390625.316407.707031.707032.707031h12.570312c.390625 0 .707032-.316406.707032-.707031v-10.585938c0-.390625-.316407-.707031-.707032-.707031zm0 .09375h12.570312c.339844 0 .613282.273438.613282.613281v10.585938c0 .339843-.273438.613281-.613282.613281h-12.570312c-.339844 0-.613282-.273438-.613282-.613281v-10.585938c0-.339843.273438-.613281.613282-.613281zm0 0" fill="#212121"/><path d="m7.9375 4.753906c1.28125 0 2.316406 1.039063 2.316406 2.316406 0 1.28125-1.035156 2.316407-2.316406 2.316407-1.277344 0-2.316406-1.035157-2.316406-2.316407 0-1.277343 1.039062-2.316406 2.316406-2.316406zm0 0" fill="url(#o)"/><path d="m7.9375 4.753906c-1.28125 0-2.316406 1.035156-2.316406 2.316406 0 .019532.003906.042969.003906.0625.03125-1.253906 1.050781-2.253906 2.3125-2.253906s2.28125 1 2.316406 2.253906c0-.019531 0-.042968 0-.0625 0-1.28125-1.03125-2.316406-2.316406-2.316406zm0 0" fill="#fff" fill-opacity=".392157"/><path d="m5.625 7.203125c0 .027344-.003906.054687-.003906.082031 0 1.28125 1.035156 2.316406 2.316406 2.316406 1.285156 0 2.316406-1.035156 2.316406-2.316406 0-.027344 0-.054687 0-.082031-.046875 1.242187-1.0625 2.230469-2.316406 2.230469s-2.269531-.988282-2.3125-2.230469zm0 0" fill-opacity=".235294"/><path d="m253.975747-62.889526c40.996085 0 74.117922 33.246825 74.117922 74.117922 0 40.996085-33.121837 74.117922-74.117922 74.117922-40.871097 0-74.117923-33.121837-74.117923-74.117922 0-40.871097 33.246826-74.117922 74.117923-74.117922zm0 0" fill="none" stroke="#212121" stroke-linecap="round" stroke-linejoin="round" stroke-width="3" transform="matrix(.031253 0 0 .031253 0 6.719392)"/></svg>

<?xml version="1.0" encoding="UTF-8"?>
<svg xmlns="http://www.w3.org/2000/svg" xmlns:xlink="http://www.w3.org/1999/xlink" width="16pt" height="16pt" viewBox="0 0 16 16" version="1.1">
<defs>
<linearGradient id="linear0" gradientUnits="userSpaceOnUse" x1="254" y1="233.5" x2="254" y2="254.66667" gradientTransform="matrix(0.031253,0,0,0.031253,-0.00000125012,6.719392)">
<stop offset="0" style="stop-color:rgb(0%,0%,0%);stop-opacity:0.27451;"/>
<stop offset="1" style="stop-color:rgb(0%,0%,0%);stop-opacity:0;"/>
</linearGradient>
<radialGradient id="radial0" gradientUnits="userSpaceOnUse" cx="450.90894" cy="189.57936" fx="450.90894" fy="189.57936" r="21.166656" gradientTransform="matrix(0.0000000870852,-0.0390662,-0.0703192,-0.0000000507693,26.726845,31.797667)">
<stop offset="0" style="stop-color:rgb(0%,0%,0%);stop-opacity:0.313725;"/>
<stop offset="0.222222" style="stop-color:rgb(0%,0%,0%);stop-opacity:0.27451;"/>
<stop offset="1" style="stop-color:rgb(0%,0%,0%);stop-opacity:0;"/>
</radialGradient>
<radialGradient id="radial1" gradientUnits="userSpaceOnUse" cx="450.90894" cy="189.57936" fx="450.90894" fy="189.57936" r="21.166656" gradientTransform="matrix(-0.0000000870852,0.0390662,0.0703192,0.0000000507693,-10.850329,-3.76374)">
<stop offset="0" style="stop-color:rgb(0%,0%,0%);stop-opacity:0.313725;"/>
<stop offset="0.222222" style="stop-color:rgb(0%,0%,0%);stop-opacity:0.27451;"/>
<stop offset="1" style="stop-color:rgb(0%,0%,0%);stop-opacity:0;"/>
</radialGradient>
<radialGradient id="radial2" gradientUnits="userSpaceOnUse" cx="450.90894" cy="189.57936" fx="450.90894" fy="189.57936" r="21.166656" gradientTransform="matrix(-0.0000000870852,-0.0390662,0.0703192,-0.0000000507693,-10.850329,31.797667)">
<stop offset="0" style="stop-color:rgb(0%,0%,0%);stop-opacity:0.313725;"/>
<stop offset="0.222222" style="stop-color:rgb(0%,0%,0%);stop-opacity:0.27451;"/>
<stop offset="1" style="stop-color:rgb(0%,0%,0%);stop-opacity:0;"/>
</radialGradient>
<radialGradient id="radial3" gradientUnits="userSpaceOnUse" cx="450.90894" cy="189.57936" fx="450.90894" fy="189.57936" r="21.166656" gradientTransform="matrix(0.0000000870852,0.0390662,-0.0703192,0.0000000507693,26.726845,-3.76374)">
<stop offset="0" style="stop-color:rgb(0%,0%,0%);stop-opacity:0.313725;"/>
<stop offset="0.222222" style="stop-color:rgb(0%,0%,0%);stop-opacity:0.27451;"/>
<stop offset="1" style="stop-color:rgb(0%,0%,0%);stop-opacity:0;"/>
</radialGradient>
<linearGradient id="linear1" gradientUnits="userSpaceOnUse" x1="306.91666" y1="-25.791676" x2="305.95456" y2="-135.32916" gradientTransform="matrix(0.0376748,0,0,0.108706,-2.927007,16.820674)">
<stop offset="0" style="stop-color:rgb(25.882353%,25.882353%,25.882353%);stop-opacity:1;"/>
<stop offset="1" style="stop-color:rgb(38.039216%,38.039216%,38.039216%);stop-opacity:1;"/>
</linearGradient>
<linearGradient id="linear2" gradientUnits="userSpaceOnUse" x1="1120" y1="1695.1182" x2="1120" y2="255.11812" gradientTransform="matrix(0.00826902,0,0,0.00826902,0,0.0068394)">
<stop offset="0" style="stop-color:rgb(95.686275%,26.27451%,21.176471%);stop-opacity:1;"/>
<stop offset="1" style="stop-color:rgb(93.72549%,32.54902%,31.372549%);stop-opacity:1;"/>
</linearGradient>
<linearGradient id="linear3" gradientUnits="userSpaceOnUse" x1="444.5" y1="185.875" x2="444.5" y2="148.83333" gradientTransform="matrix(0.5,0,0,0.571428,-105.83347,106.33793)">
<stop offset="0" style="stop-color:rgb(25.882353%,25.882353%,25.882353%);stop-opacity:1;"/>
<stop offset="1" style="stop-color:rgb(38.039216%,38.039216%,38.039216%);stop-opacity:1;"/>
</linearGradient>
<linearGradient id="linear4" gradientUnits="userSpaceOnUse" x1="444.5" y1="185.875" x2="444.5" y2="148.83333" gradientTransform="matrix(0.5,0,0,0.571428,-63.500116,106.33793)">
<stop offset="0" style="stop-color:rgb(25.882353%,25.882353%,25.882353%);stop-opacity:1;"/>
<stop offset="1" style="stop-color:rgb(38.039216%,38.039216%,38.039216%);stop-opacity:1;"/>
</linearGradient>
<linearGradient id="linear5" gradientUnits="userSpaceOnUse" x1="444.5" y1="185.875" x2="444.5" y2="148.83333" gradientTransform="matrix(0.5,0,0,0.571428,-21.166803,106.33793)">
<stop offset="0" style="stop-color:rgb(25.882353%,25.882353%,25.882353%);stop-opacity:1;"/>
<stop offset="1" style="stop-color:rgb(38.039216%,38.039216%,38.039216%);stop-opacity:1;"/>
</linearGradient>
<linearGradient id="linear6" gradientUnits="userSpaceOnUse" x1="444.5" y1="185.875" x2="444.5" y2="148.83333" gradientTransform="matrix(0.5,0,0,0.571428,169.3332,106.33793)">
<stop offset="0" style="stop-color:rgb(25.882353%,25.882353%,25.882353%);stop-opacity:1;"/>
<stop offset="1" style="stop-color:rgb(38.039216%,38.039216%,38.039216%);stop-opacity:1;"/>
</linearGradient>
<linearGradient id="linear7" gradientUnits="userSpaceOnUse" x1="254" y1="233.5" x2="254" y2="-147.5" gradientTransform="matrix(0.031253,0,0,0.031253,0,6.719392)">
<stop offset="0" style="stop-color:rgb(95.686275%,26.27451%,21.176471%);stop-opacity:1;"/>
<stop offset="1" style="stop-color:rgb(93.72549%,32.54902%,31.372549%);stop-opacity:1;"/>
</linearGradient>
</defs>
<g id="surface1">
<path style=" stroke:none;fill-rule:nonzero;fill:url(#linear0);" d="M 2.316406 14.015625 L 13.5625 14.015625 L 13.5625 14.679688 L 2.316406 14.679688 Z M 2.316406 14.015625 "/>
<path style=" stroke:none;fill-rule:nonzero;fill:url(#radial0);" d="M 13.5625 14.015625 L 14.882812 14.015625 L 14.882812 13.355469 L 13.5625 13.355469 Z M 13.5625 14.015625 "/>
<path style=" stroke:none;fill-rule:nonzero;fill:url(#radial1);" d="M 2.316406 14.015625 L 0.992188 14.015625 L 0.992188 14.679688 L 2.316406 14.679688 Z M 2.316406 14.015625 "/>
<path style=" stroke:none;fill-rule:nonzero;fill:url(#radial2);" d="M 2.316406 14.015625 L 0.992188 14.015625 L 0.992188 13.355469 L 2.316406 13.355469 Z M 2.316406 14.015625 "/>
<path style=" stroke:none;fill-rule:nonzero;fill:url(#radial3);" d="M 13.5625 14.015625 L 14.882812 14.015625 L 14.882812 14.679688 L 13.5625 14.679688 Z M 13.5625 14.015625 "/>
<path style=" stroke:none;fill-rule:nonzero;fill:url(#linear1);" d="M 1.652344 2.109375 L 14.222656 2.109375 C 14.589844 2.109375 14.882812 2.40625 14.882812 2.769531 L 14.882812 13.355469 C 14.882812 13.722656 14.589844 14.015625 14.222656 14.015625 L 1.652344 14.015625 C 1.289062 14.015625 0.992188 13.722656 0.992188 13.355469 L 0.992188 2.769531 C 0.992188 2.40625 1.289062 2.109375 1.652344 2.109375 Z M 1.652344 2.109375 "/>
<path style=" stroke:none;fill-rule:nonzero;fill:rgb(0%,0%,0%);fill-opacity:0.235294;" d="M 1.652344 14.023438 C 1.289062 14.023438 0.992188 13.726562 0.992188 13.363281 L 0.992188 13.191406 C 0.992188 13.554688 1.289062 13.851562 1.652344 13.851562 L 14.222656 13.851562 C 14.589844 13.851562 14.882812 13.554688 14.882812 13.191406 L 14.882812 13.363281 C 14.882812 13.726562 14.589844 14.023438 14.222656 14.023438 Z M 1.652344 14.023438 "/>
<path style=" stroke:none;fill-rule:nonzero;fill:url(#linear2);" d="M 3.308594 12.039062 C 2.941406 12.039062 2.644531 12.335938 2.644531 12.699219 L 2.644531 13.691406 C 2.644531 13.875 2.792969 14.023438 2.976562 14.023438 L 12.898438 14.023438 C 13.082031 14.023438 13.230469 13.875 13.230469 13.691406 L 13.230469 12.699219 C 13.230469 12.335938 12.933594 12.039062 12.570312 12.039062 Z M 3.308594 12.039062 "/>
<path style="fill-rule:nonzero;fill:url(#linear3);stroke-width:3;stroke-linecap:round;stroke-linejoin:miter;stroke:rgb(12.941176%,12.941176%,12.941176%);stroke-opacity:1;stroke-miterlimit:4;" d="M 116.363888 191.336197 C 122.238327 191.336197 126.987873 196.085743 126.987873 201.960182 C 126.987873 207.834621 122.238327 212.584168 116.363888 212.584168 C 110.614437 212.584168 105.86489 207.834621 105.86489 201.960182 C 105.86489 196.085743 110.614437 191.336197 116.363888 191.336197 Z M 116.363888 191.336197 " transform="matrix(0.031253,0,0,0.031253,0,6.719392)"/>
<path style="fill-rule:nonzero;fill:url(#linear4);stroke-width:3;stroke-linecap:round;stroke-linejoin:miter;stroke:rgb(12.941176%,12.941176%,12.941176%);stroke-opacity:1;stroke-miterlimit:4;" d="M 158.734842 191.336197 C 164.609281 191.336197 169.358827 196.085743 169.358827 201.960182 C 169.358827 207.834621 164.609281 212.584168 158.734842 212.584168 C 152.860403 212.584168 148.110856 207.834621 148.110856 201.960182 C 148.110856 196.085743 152.860403 191.336197 158.734842 191.336197 Z M 158.734842 191.336197 " transform="matrix(0.031253,0,0,0.031253,0,6.719392)"/>
<path style="fill-rule:nonzero;fill:url(#linear5);stroke-width:3;stroke-linecap:round;stroke-linejoin:miter;stroke:rgb(12.941176%,12.941176%,12.941176%);stroke-opacity:1;stroke-miterlimit:4;" d="M 201.105795 191.336197 C 206.980234 191.336197 211.604793 196.085743 211.604793 201.960182 C 211.604793 207.834621 206.980234 212.584168 201.105795 212.584168 C 195.231356 212.584168 190.48181 207.834621 190.48181 201.960182 C 190.48181 196.085743 195.231356 191.336197 201.105795 191.336197 Z M 201.105795 191.336197 " transform="matrix(0.031253,0,0,0.031253,0,6.719392)"/>
<path style="fill-rule:nonzero;fill:url(#linear6);stroke-width:3;stroke-linecap:round;stroke-linejoin:miter;stroke:rgb(12.941176%,12.941176%,12.941176%);stroke-opacity:1;stroke-miterlimit:4;" d="M 391.587605 191.336197 C 397.462044 191.336197 402.211591 196.085743 402.211591 201.960182 C 402.211591 207.834621 397.462044 212.584168 391.587605 212.584168 C 385.713166 212.584168 380.96362 207.834621 380.96362 201.960182 C 380.96362 196.085743 385.713166 191.336197 391.587605 191.336197 Z M 391.587605 191.336197 " transform="matrix(0.031253,0,0,0.031253,0,6.719392)"/>
<path style=" stroke:none;fill-rule:nonzero;fill:rgb(100%,100%,100%);fill-opacity:0.392157;" d="M 3.308594 12.039062 C 2.941406 12.039062 2.644531 12.335938 2.644531 12.699219 L 2.644531 12.859375 C 2.644531 12.492188 2.941406 12.199219 3.308594 12.199219 L 12.570312 12.199219 C 12.933594 12.199219 13.230469 12.492188 13.230469 12.859375 L 13.230469 12.699219 C 13.230469 12.335938 12.933594 12.039062 12.570312 12.039062 Z M 3.308594 12.039062 "/>
<path style=" stroke:none;fill-rule:nonzero;fill:rgb(0%,0%,0%);fill-opacity:0.235294;" d="M 2.644531 13.527344 L 2.644531 13.691406 C 2.644531 13.875 2.792969 14.023438 2.976562 14.023438 L 12.898438 14.023438 C 13.082031 14.023438 13.230469 13.875 13.230469 13.691406 L 13.230469 13.527344 C 13.230469 13.710938 13.082031 13.859375 12.898438 13.859375 L 2.976562 13.859375 C 2.792969 13.859375 2.644531 13.710938 2.644531 13.527344 Z M 2.644531 13.527344 "/>
<path style=" stroke:none;fill-rule:nonzero;fill:rgb(12.941176%,12.941176%,12.941176%);fill-opacity:1;" d="M 3.308594 11.992188 C 2.914062 11.992188 2.597656 12.308594 2.597656 12.699219 L 2.597656 13.691406 C 2.597656 13.902344 2.769531 14.070312 2.976562 14.070312 L 12.898438 14.070312 C 13.109375 14.070312 13.277344 13.902344 13.277344 13.691406 L 13.277344 12.699219 C 13.277344 12.308594 12.960938 11.992188 12.570312 11.992188 Z M 3.308594 12.085938 L 12.570312 12.085938 C 12.910156 12.085938 13.183594 12.359375 13.183594 12.699219 L 13.183594 13.691406 C 13.183594 13.851562 13.058594 13.976562 12.898438 13.976562 L 2.976562 13.976562 C 2.820312 13.976562 2.691406 13.851562 2.691406 13.691406 L 2.691406 12.699219 C 2.691406 12.359375 2.964844 12.085938 3.308594 12.085938 Z M 3.308594 12.085938 "/>
<path style=" stroke:none;fill-rule:nonzero;fill:rgb(100%,100%,100%);fill-opacity:0.392157;" d="M 1.652344 2.148438 C 1.289062 2.148438 0.992188 2.441406 0.992188 2.808594 L 0.992188 2.898438 C 0.992188 2.53125 1.289062 2.238281 1.652344 2.238281 L 14.222656 2.238281 C 14.589844 2.238281 14.882812 2.53125 14.882812 2.898438 L 14.882812 2.808594 C 14.882812 2.441406 14.589844 2.148438 14.222656 2.148438 Z M 1.652344 2.148438 "/>
<path style=" stroke:none;fill-rule:nonzero;fill:rgb(12.941176%,12.941176%,12.941176%);fill-opacity:1;" d="M 1.652344 2.0625 C 1.261719 2.0625 0.945312 2.378906 0.945312 2.769531 L 0.945312 13.355469 C 0.945312 13.746094 1.261719 14.0625 1.652344 14.0625 L 14.222656 14.0625 C 14.613281 14.0625 14.929688 13.746094 14.929688 13.355469 L 14.929688 2.769531 C 14.929688 2.378906 14.613281 2.0625 14.222656 2.0625 Z M 1.652344 2.15625 L 14.222656 2.15625 C 14.5625 2.15625 14.835938 2.429688 14.835938 2.769531 L 14.835938 13.355469 C 14.835938 13.695312 14.5625 13.96875 14.222656 13.96875 L 1.652344 13.96875 C 1.3125 13.96875 1.039062 13.695312 1.039062 13.355469 L 1.039062 2.769531 C 1.039062 2.429688 1.3125 2.15625 1.652344 2.15625 Z M 1.652344 2.15625 "/>
<path style=" stroke:none;fill-rule:nonzero;fill:url(#linear7);" d="M 7.9375 4.753906 C 9.21875 4.753906 10.253906 5.792969 10.253906 7.070312 C 10.253906 8.351562 9.21875 9.386719 7.9375 9.386719 C 6.660156 9.386719 5.621094 8.351562 5.621094 7.070312 C 5.621094 5.792969 6.660156 4.753906 7.9375 4.753906 Z M 7.9375 4.753906 "/>
<path style=" stroke:none;fill-rule:nonzero;fill:rgb(100%,100%,100%);fill-opacity:0.392157;" d="M 7.9375 4.753906 C 6.65625 4.753906 5.621094 5.789062 5.621094 7.070312 C 5.621094 7.089844 5.625 7.113281 5.625 7.132812 C 5.65625 5.878906 6.675781 4.878906 7.9375 4.878906 C 9.199219 4.878906 10.21875 5.878906 10.253906 7.132812 C 10.253906 7.113281 10.253906 7.089844 10.253906 7.070312 C 10.253906 5.789062 9.222656 4.753906 7.9375 4.753906 Z M 7.9375 4.753906 "/>
<path style=" stroke:none;fill-rule:nonzero;fill:rgb(0%,0%,0%);fill-opacity:0.235294;" d="M 5.625 7.203125 C 5.625 7.230469 5.621094 7.257812 5.621094 7.285156 C 5.621094 8.566406 6.65625 9.601562 7.9375 9.601562 C 9.222656 9.601562 10.253906 8.566406 10.253906 7.285156 C 10.253906 7.257812 10.253906 7.230469 10.253906 7.203125 C 10.207031 8.445312 9.191406 9.433594 7.9375 9.433594 C 6.683594 9.433594 5.667969 8.445312 5.625 7.203125 Z M 5.625 7.203125 "/>
<path style="fill:none;stroke-width:3;stroke-linecap:round;stroke-linejoin:round;stroke:rgb(12.941176%,12.941176%,12.941176%);stroke-opacity:1;stroke-miterlimit:4;" d="M 253.975747 -62.889526 C 294.971832 -62.889526 328.093669 -29.642701 328.093669 11.228396 C 328.093669 52.224481 294.971832 85.346318 253.975747 85.346318 C 213.10465 85.346318 179.857824 52.224481 179.857824 11.228396 C 179.857824 -29.642701 213.10465 -62.889526 253.975747 -62.889526 Z M 253.975747 -62.889526 " transform="matrix(0.031253,0,0,0.031253,0,6.719392)"/>
</g>
</svg>
